X: 43185
T: Wise Maid, The
R: reel
M: 4/4
K: Dmajor
|:DE|F=F^FG FEDE|FAAB AFED|d2 (3efg fdec|dBAF BEEG|
F=F^FG FEDE|FAAB AFED|d2 (3efg fdec|dBAG FD:|
|:(3FGA|d2AG (3FED FA|dfaf gf (3efg|fAdf eA (3cde|(3def ed cA A=c|
BDGB ADFA|dfaf gfed|(3Bcd (3cde dBAG|FGEF D2:|

